chrome/icons/words2.svg

<svg height="16" viewBox="0 128 1024 768" width="16" xmlns="http://www.w3.org/2000/svg" xmlns:xlink="http://www.w3.org/1999/xlink">
  <path d="M0,272L0,269.5C0,250.5 3.83333,232.5 11.5,215.5C19.1667,198.5 29.5,183.5 42.5,170.5C55.5,157.5 70.5,147.167 87.5,139.5C104.5,131.833 122.5,128 141.5,128C153.5,128 165.417,129.417 177.25,132.25C189.083,135.083 200.333,139.167 211,144.5C221.667,149.833 231.583,156.5 240.75,164.5C249.917,172.5 257.667,181.667 264,192C267.333,197.333 269,203.167 269,209.5C269,218.167 265.917,225.75 259.75,232.25C253.583,238.75 246.167,242 237.5,242C229.5,242 222.917,239.417 217.75,234.25C212.583,229.083 207,223.333 201,217C195,210.667 187.667,204.917 179,199.75C170.333,194.583 158.667,192 144,192C133,192 122.667,194.167 113,198.5C103.333,202.833 94.9167,208.583 87.75,215.75C80.5833,222.917 74.8333,231.333 70.5,241C66.1667,250.667 64,261 64,272C64,283 66.1667,293.333 70.5,303C74.8333,312.667 80.5833,321.083 87.75,328.25C94.9167,335.417 103.333,341.167 113,345.5C122.667,349.833 133,352 144,352C145.667,352 147,352.167 148,352.5C149,352.167 150.5,352 152.5,352L864,352C872.667,352 880.167,355.167 886.5,361.5C892.833,367.833 896,375.333 896,384C896,392.667 892.833,400.167 886.5,406.5C880.167,412.833 872.667,416 864,416L152.5,416C150.5,416 149,415.833 148,415.5C147,415.833 145.917,416 144.75,416C143.583,416 142.5,416 141.5,416C121.833,416 103.417,412.083 86.25,404.25C69.0833,396.417 54.1667,385.917 41.5,372.75C28.8333,359.583 18.75,344.333 11.25,327C3.75,309.667 0,291.333 0,272ZM416,256C407.333,256 399.833,252.833 393.5,246.5C387.167,240.167 384,232.667 384,224C384,215.333 387.167,207.833 393.5,201.5C399.833,195.167 407.333,192 416,192L992,192C1000.67,192 1008.17,195.167 1014.5,201.5C1020.83,207.833 1024,215.333 1024,224C1024,232.667 1020.83,240.167 1014.5,246.5C1008.17,252.833 1000.67,256 992,256ZM224,576C215.333,576 207.833,572.833 201.5,566.5C195.167,560.167 192,552.667 192,544C192,535.333 195.167,527.833 201.5,521.5C207.833,515.167 215.333,512 224,512L992,512C1000.67,512 1008.17,515.167 1014.5,521.5C1020.83,527.833 1024,535.333 1024,544C1024,552.667 1020.83,560.167 1014.5,566.5C1008.17,572.833 1000.67,576 992,576ZM32,736C23.3333,736 15.8333,732.833 9.5,726.5C3.16667,720.167 0,712.667 0,704C0,695.333 3.16667,687.833 9.5,681.5C15.8333,675.167 23.3333,672 32,672L800,672C808.667,672 816.167,675.167 822.5,681.5C828.833,687.833 832,695.333 832,704C832,712.667 828.833,720.167 822.5,726.5C816.167,732.833 808.667,736 800,736ZM224,896C215.333,896 207.833,892.833 201.5,886.5C195.167,880.167 192,872.667 192,864C192,855.333 195.167,847.833 201.5,841.5C207.833,835.167 215.333,832 224,832L992,832C1000.67,832 1008.17,835.167 1014.5,841.5C1020.83,847.833 1024,855.333 1024,864C1024,872.667 1020.83,880.167 1014.5,886.5C1008.17,892.833 1000.67,896 992,896Z" fill="context-fill" fill-opacity="context-fill-opacity">
  </path>
</svg>

<svg xmlns="http://www.w3.org/2000/svg" width="16" height="16" viewBox="0 128 1024 768"><path fill="context-fill" fill-opacity="context-fill-opacity" d="M0 272v-2.5q0-28.5 11.5-54t31-45 45-31 54-11.5q18 0 35.75 4.25T211 144.5t29.75 20T264 192q5 8 5 17.5 0 13-9.25 22.75T237.5 242q-12 0-19.75-7.75T201 217t-22-17.25-35-7.75q-16.5 0-31 6.5t-25.25 17.25T70.5 241 64 272t6.5 31 17.25 25.25T113 345.5t31 6.5q2.5 0 4 .5 1.5-.5 4.5-.5H864q13 0 22.5 9.5T896 384t-9.5 22.5T864 416H152.5q-3 0-4.5-.5-1.5.5-3.25.5h-3.25q-29.5 0-55.25-11.75t-44.75-31.5T11.25 327 0 272m416-16q-13 0-22.5-9.5T384 224t9.5-22.5T416 192h576q13.005 0 22.5 9.5c6.33 6.333 9.5 13.833 9.5 22.5s-3.17 16.167-9.5 22.5q-9.495 9.5-22.5 9.5ZM224 576q-13 0-22.5-9.5T192 544t9.5-22.5T224 512h768q13.005 0 22.5 9.5c6.33 6.333 9.5 13.833 9.5 22.5s-3.17 16.167-9.5 22.5q-9.495 9.5-22.5 9.5ZM32 736q-13 0-22.5-9.5T0 704t9.5-22.5T32 672h768q13 0 22.5 9.5T832 704t-9.5 22.5T800 736Zm192 160q-13 0-22.5-9.5T192 864t9.5-22.5T224 832h768q13.005 0 22.5 9.5c6.33 6.333 9.5 13.833 9.5 22.5s-3.17 16.167-9.5 22.5q-9.495 9.5-22.5 9.5Z"/></svg>
